X: 2
T: Anderson's
R: reel
M: 4/4
L: 1/8
K: Dmaj
|:ABdf e2dB|AF~F2 EFDB|ABdf e2df|1 afef dedB:|2 afef d3f||a2fa bafb|a2fd edBd|a2fa bafb|afef d3f|a2fa bafb|a2fd edBd|A2FB ABdf|afef d3B||


Tune 1631	Setting 28201

